X: 862
T: Gönlüm Yaralı
C: Kadri Şençalar
O: Turkey
F: http://compmusic.upf.edu/node/140
N: hicaz--sarki--turkaksagi--gonlum_yarali--kadri_sencalar
N: makam= hicaz
N: form= sarki
N: usul= turkaksagi = 5/8
M: 5/8
L: 1/16
K: C _7/8B ^f ^c 
Q: 1/4=96
%%MIDI tuningsystem comma53
A4 g^1/4fef e2 | e2 e2e6  | e2^1/4fe fgge2d | \
w:  Gön lüm   |  ya ra lı   |  bil  | 
de/d/ d2{e}d6  | 
w:  mi *  *  yo *  rum   | 
cded e4 ed | e^3/4f gf(3fgf fg(3g=fe  | \
w:  yâr   |  yâr   | 
e2e2 e2{a}g3/2^1/4f/ e=f | 
w:  ba na  nol  | 
e4{A}d3/2c/ dBA2  | A4 g^1/4fef e2 | \
w:  du   *  SAZ  |  Gön lüm   | 
e2 e2e6  | e2^1/4fe fgge2d | 
w:  ya ra lı   |  bil  | 
de/d/ d2{e}d6  | cded e4 ed | e^3/4f gf(3fgf fg(3g=fe  | 
w:  mi *  *  yo *  rum   |  yâr   |  yâr   | 
e2e2 e2{a}g3/2^1/4f/ e=f | e4d3/2e/ ^3/4fga/g/f/e/  | \
w:  ba na  nol  |  du   SAZ  | 
d4 ^3/4f2g2 a2 | a2 a2a2 {=b}(3g^2/4fef2  | 
w:  Gül  renk  |  li  yü züm   | 
e2^1/4fe fgge ed | de d/d/d/c/d4z2  | \
w:  aş  |  kın_ *  i *  *  *  çin   | 
cd2c d6 | 
w:  bak   | 
cd ede4dc  | c2c2 c2BA dc | c4(3dcB BAB3/2A/  | 
w:   |  yi ne  sol  |  du   SAZ  | 
dcBA (3ABc(3Bcd (3cBA | A2 A2A2 ABcd  | \
w:  Gül  *  *  *  renk  |  li  yü züm  SAZ  | 
cd2c de3 ed | 
w:  aş  | 
d2 d2{e}d2 {e}(3cBAB2  | cded e4 dc | \
w:  kın_ i *  çin   |  bak   | 
Bc dcd4(3cBA  | 
w:   | 
A2A2 Bc2B BA | A4a3/2^g/ =fga2  | a4 {=b}a2{b}^g2 {A}=f2 | \
w:  yi ne  sol  |  du   SAZ  |  Ar *  tık   | 
a2 a2a6  | a2=b=c' c'bba ag | 
w:  ye ti şir   |  has  | 
a2 a2a2 (3gfef2  | e2^2/4fg (3gfg(3=fef (3ede | \
w:  re ti miz   |  yıl  | 
(3dcd (3cBc(3BAB A2A2  | 
w:   | 
d2{=f}e2 ^3/4fg2f =fe | e4a3/2^g/ =fga2  | \
w:  la *  rı  bul  |  du   SAZ  | 
a4 {=b}a2{b}^g2 {A}=f2 | a2 a2a6  | a2=b=c' c'bba ag | 
w:  Ar *  tık   |  ye ti şir   |  has  | 
a2 a2a2 (3gfef2  | e2^2/4fg (3gfg(3=fef (3ede | \
w:  re ti miz   |  yıl  | 
(3dcd (3cBc(3BAB A2A2  | 
w:   | 
d2{=f}e2 ^3/4fg2f =fe | e4de fga2  | \
w:  la *  rı  bul  |  du   SAZ  | 
d4 ^3/4f2g2 a2 | a2 a2a2 {=b}(3g^2/4fef2  | 
w:  Gül  renk  |  li  yü züm   | 
e2^1/4fe fgge ed | de d/d/d/c/d4z2  | \
w:  aş  |  kın_ *  i *  *  *  çin   | 
cd2c d6 | 
w:  bak   | 
cd ede4dc  | c2c2 c2BA dc | c4(3dcB BAB3/2A/  | 
w:   |  yi ne  sol  |  du   SAZ  | 
dcBA (3ABc(3Bcd (3cBA | A2 A2A2 ABcd  | \
w:  Gül  *  *  *  renk  |  li  yü züm  SAZ  | 
cd2c de3 ed | 
w:  aş  | 
d2 d2{e}d2 {e}(3cBAB2  | cded e4 dc | \
w:  kın_ i *  çin   |  bak   | 
Bc dcd4(3cBA  | 
w:   | 
A2A2 Bc2B BA | A4|
w:  yi ne  sol  |  du    | 


